latex_in_markdown/.watch-latex-md-images/5ba233a286631a8918b5ae921f1f3286.svg

<ns0:svg xmlns:ns0="http://www.w3.org/2000/svg" xmlns:ns1="http://www.w3.org/1999/xlink" height="17.2154pt" version="1.1" viewBox="23.686 61.6313 27.4927 17.2154" width="27.4927pt" watch_lated_md:baseline="4.126899999999996" xmlns:watch_lated_md="https://github.com/Quansight/pearu-sandbox/latex_in_markdown/">
<ns0:defs>
<ns0:path d="m6.69681 14.7192l-3.02992 -6.69681c-0.120508 -0.275447 -0.206585 -0.275447 -0.258232 -0.275447c-0.0172154 0 -0.103293 0 -0.292662 0.137724l-1.63547 1.23951c-0.223801 0.172154 -0.223801 0.223801 -0.223801 0.275447c0 0.0860772 0.0516463 0.18937 0.172154 0.18937c0.103293 0 0.395955 -0.241016 0.585325 -0.37874c0.103293 -0.0860772 0.361524 -0.275447 0.550894 -0.413171l3.39144 7.45429c0.120508 0.275447 0.206585 0.275447 0.361524 0.275447c0.258232 0 0.309878 -0.103293 0.430386 -0.344309l7.81581 -16.1825c0.120508 -0.241016 0.120508 -0.309878 0.120508 -0.344309c0 -0.172154 -0.137724 -0.344309 -0.344309 -0.344309c-0.137724 0 -0.258232 0.0860772 -0.395955 0.361524l-7.2477 15.0463z" id="g0-112" />
<ns0:path d="m5.18185 -2.04864c-0.0860772 0.292662 -0.0860772 0.327093 -0.327093 0.654187c-0.37874 0.482032 -1.13622 1.2223 -1.94534 1.2223c-0.705833 0 -1.10179 -0.636971 -1.10179 -1.65268c0 -0.946849 0.533679 -2.87498 0.860772 -3.59803c0.585325 -1.20508 1.39445 -1.82484 2.06585 -1.82484c1.13622 0 1.36002 1.41167 1.36002 1.54939c0 0.0172154 -0.0516463 0.241016 -0.0688618 0.275447l-0.843557 3.37423zm1.10179 -4.40715c-0.18937 -0.447601 -0.654187 -1.13622 -1.54939 -1.13622c-1.94534 0 -4.04563 2.51345 -4.04563 5.06134c0 1.70433 0.998496 2.70282 2.16915 2.70282c0.946849 0 1.75597 -0.740264 2.23801 -1.30837c0.172154 1.01571 0.98128 1.30837 1.49774 1.30837s0.929634 -0.309878 1.23951 -0.929634c0.275447 -0.585325 0.516463 -1.63547 0.516463 -1.70433c0 -0.0860772 -0.0688618 -0.154939 -0.172154 -0.154939c-0.154939 0 -0.172154 0.0860772 -0.241016 0.344309c-0.258232 1.01571 -0.585325 2.10028 -1.29116 2.10028c-0.499248 0 -0.533679 -0.447601 -0.533679 -0.79191c0 -0.395955 0.0516463 -0.585325 0.206585 -1.25673c0.120508 -0.430386 0.206585 -0.809126 0.344309 -1.30837c0.636971 -2.58232 0.79191 -3.20207 0.79191 -3.30536c0 -0.241016 -0.18937 -0.430386 -0.447601 -0.430386c-0.550894 0 -0.688618 0.60254 -0.723049 0.809126z" id="g1-97" />
<ns0:path d="m2.85776 -0.705833c0 -0.430386 -0.344309 -0.705833 -0.705833 -0.705833c-0.344309 0 -0.705833 0.275447 -0.705833 0.705833s0.344309 0.705833 0.705833 0.705833c0.344309 0 0.705833 -0.275447 0.705833 -0.705833z" id="g2-46" />
</ns0:defs>
<ns0:g id="page1">
<ns0:use x="27.9837" ns1:href="#g0-112" y="62.3199" />
<ns0:rect height="0.688595" width="8.84871" x="42.3299" y="61.6313" />
<ns0:use x="42.3299" ns1:href="#g1-97" y="74.7198" />
</ns0:g>
</ns0:svg>

<ns0:svg xmlns:ns0="http://www.w3.org/2000/svg" xmlns:ns1="http://www.w3.org/1999/xlink" height="17.2154pt" version="1.1" viewBox="23.686 61.6313 27.4927 17.2154" width="27.4927pt" watch_lated_md:baseline="4.126899999999996" xmlns:watch_lated_md="https://github.com/Quansight/pearu-sandbox/latex_in_markdown/">
<ns0:defs>
<ns0:path d="M6.69681 14.7192L3.66689 8.0224C3.54638 7.74695 3.4603 7.74695 3.40866 7.74695C3.39144 7.74695 3.30536 7.74695 3.11599 7.88467L1.48053 9.12418C1.25673 9.29634 1.25673 9.34798 1.25673 9.39963C1.25673 9.48571 1.30837 9.589 1.42888 9.589C1.53217 9.589 1.82484 9.34798 2.01421 9.21026C2.1175 9.12418 2.37573 8.93481 2.5651 8.79709L5.95654 16.2514C6.07705 16.5268 6.16313 16.5268 6.31807 16.5268C6.5763 16.5268 6.62794 16.4235 6.74845 16.1825L14.5643 0C14.6848 -0.241016 14.6848 -0.309878 14.6848 -0.344309C14.6848 -0.516463 14.547 -0.688618 14.3405 -0.688618C14.2027 -0.688618 14.0822 -0.60254 13.9445 -0.327093L6.69681 14.7192Z" id="g0-112" />
<ns0:path d="M5.18185 -2.04864C5.09577 -1.75597 5.09577 -1.72154 4.85475 -1.39445C4.47601 -0.912418 3.71854 -0.172154 2.90941 -0.172154C2.20358 -0.172154 1.80762 -0.809126 1.80762 -1.82484C1.80762 -2.77169 2.3413 -4.69982 2.66839 -5.42286C3.25372 -6.62794 4.06284 -7.2477 4.73425 -7.2477C5.87047 -7.2477 6.09427 -5.83603 6.09427 -5.69831C6.09427 -5.6811 6.04262 -5.45729 6.0254 -5.42286L5.18185 -2.04864ZM6.28364 -6.45579C6.09427 -6.90339 5.62945 -7.59201 4.73425 -7.59201C2.7889 -7.59201 0.688618 -5.07856 0.688618 -2.53067C0.688618 -0.826341 1.68711 0.172154 2.85776 0.172154C3.80461 0.172154 4.61374 -0.56811 5.09577 -1.13622C5.26792 -0.120508 6.07705 0.172154 6.59351 0.172154S7.52315 -0.137724 7.83303 -0.757479C8.10847 -1.3428 8.34949 -2.39295 8.34949 -2.46181C8.34949 -2.54789 8.28063 -2.61675 8.17733 -2.61675C8.0224 -2.61675 8.00518 -2.53067 7.93632 -2.27244C7.67809 -1.25673 7.35099 -0.172154 6.64516 -0.172154C6.14591 -0.172154 6.11148 -0.619756 6.11148 -0.964065C6.11148 -1.36002 6.16313 -1.54939 6.31807 -2.22079C6.43857 -2.65118 6.52465 -3.02992 6.66238 -3.52917C7.29935 -6.11148 7.45429 -6.73124 7.45429 -6.83453C7.45429 -7.07555 7.26492 -7.26492 7.00668 -7.26492C6.45579 -7.26492 6.31807 -6.66238 6.28364 -6.45579Z" id="g1-97" />
<ns0:path d="M2.85776 -0.705833C2.85776 -1.13622 2.51345 -1.41167 2.15193 -1.41167C1.80762 -1.41167 1.4461 -1.13622 1.4461 -0.705833S1.79041 0 2.15193 0C2.49624 0 2.85776 -0.275447 2.85776 -0.705833Z" id="g2-46" />
</ns0:defs>
<ns0:g id="page1">
<ns0:use x="27.9837" ns1:href="#g0-112" y="62.3199" />
<ns0:rect height="0.688595" width="8.84871" x="42.3299" y="61.6313" />
<ns0:use x="42.3299" ns1:href="#g1-97" y="74.7198" />
</ns0:g>
</ns0:svg>
